X: 5980
T: Can Anyone Tell Me Where Nancy's Gone?
R: slide
M: 12/8
K: Gmajor
B2c|:ded cBA d2B G3|ABA FGA e2d B2c|
ded cBA d2B G2B|ABA FGA G3 GBc:|
|:ded d2B d2B GBd|ege e2d e2c ABc|
ded d2B d2B G2B|ABA FGA G3 GBc:|

